icon-svg/spicebottle.svg

<svg xmlns="http://www.w3.org/2000/svg" fill="#44739e" viewBox="0 0 24 24"><path d="M17.326 13.032a27.5 27.5 0 0 1-1.051-2.693c-.161-.48-.18-.586-.133-.6a1.27 1.27 0 0 0 .254-.219.842.842 0 0 0 .2-1.02.943.943 0 0 0-.848-.567H15.6v-.345c0-.332 0-.343.109-.406a1.1 1.1 0 0 0 .426-.516c.063-.172.1-.207.321-.328a1.338 1.338 0 0 0 .625-.629 1.055 1.055 0 0 0 .1-.559v-.344h.129a.329.329 0 0 0 .321-.312.349.349 0 0 0-.266-.313c-.07 0-.074-.023-.059-.422.024-.5-.015-.676-.2-.895-.4-.465-1.411-.723-3.267-.832-.75-.043-3.97-.043-4.572 0a3.506 3.506 0 0 0-2.313.734c-.234.262-.281.442-.258.981.02.407.016.43-.055.43-.117 0-.265.176-.265.313a.326.326 0 0 0 .324.312h.13l-.02.211a1.35 1.35 0 0 0 .372 1.047 2.84 2.84 0 0 0 .363.258c.223.133.262.18.324.344a1.086 1.086 0 0 0 .43.516c.1.063.106.074.106.406v.344h-.141a.855.855 0 0 0-.66.293.856.856 0 0 0-.247.934 1.38 1.38 0 0 0 .481.555c.074.043.07.067-.168.782a28.2 28.2 0 0 1-1.082 2.731 6.14 6.14 0 0 0-.829 3.459 5.515 5.515 0 0 0 .5 2.446 2.617 2.617 0 0 0 1.231 1.266.783.783 0 0 1 .387.359A2.87 2.87 0 0 0 9.315 21.9l.3.1h2.38a11.08 11.08 0 0 0 2.649-.082 2.887 2.887 0 0 0 1.477-1.161 1.28 1.28 0 0 1 .223-.281 2.8 2.8 0 0 0 .9-.629 4.427 4.427 0 0 0 1-3.161c.039-1.341-.058-1.739-.918-3.654m-1.594-4.474a.3.3 0 0 1 .234.1.308.308 0 0 1-.234.528H15.6v-.628ZM7.31 3.622c0-.394.051-.48.372-.629A5.58 5.58 0 0 1 9.5 2.641c.1-.007 1.168-.007 2.383 0 1.685.012 2.333.028 2.736.075a4.38 4.38 0 0 1 1.93.5c.141.113.141.117.141.406s-.039.426-.152.512c-.047.039-1.079.047-4.529.051H7.537l-.113-.113c-.106-.114-.114-.137-.114-.45m.567 2.169a.758.758 0 0 1-.359-.32.472.472 0 0 1 .007-.571l.094-.1h8.761l.094.1a.477.477 0 0 1 .012.567.716.716 0 0 1-.344.32 1.045 1.045 0 0 0-.567.582c-.113.336.184.309-3.575.309a24.7 24.7 0 0 1-3.423-.059.65.65 0 0 1-.165-.285c-.097-.266-.171-.334-.535-.543M12 9.183H9.03v-.625h5.94v.625zm2.97.625v.371c0 .344-.008.383-.1.469l-.094.1H9.221l-.093-.1c-.09-.086-.1-.125-.1-.469v-.371h5.94zM12 7.932H9.03V7.62h5.94v.312Zm-3.732.626H8.4v.625h-.132a.313.313 0 1 1 0-.625M7.135 13.54c.453-1.012.828-1.954 1.082-2.685l.168-.5.027.168a1.34 1.34 0 0 0 .09.313 1.144 1.144 0 0 0 .559.484c.113.035.918.047 2.947.047 3.18 0 3.032.016 3.325-.312a.953.953 0 0 0 .266-.61c0-.07.082.117.207.473.308.871.594 1.575 1.047 2.6.227.5.449 1.024.5 1.153a2.536 2.536 0 0 1 .215 1.114 6.1 6.1 0 0 1-1.031-.782 1 1 0 0 1 .062-.179.625.625 0 0 0-.086-.645c-.137-.145-.242-.192-.7-.3l-.352-.086-.391-.383a2.63 2.63 0 0 0-.981-.711 1.373 1.373 0 0 0-1.285.277 3.7 3.7 0 0 1-.364.2c-.019.008-.117-.1-.218-.23a1.113 1.113 0 0 0-.985-.535.862.862 0 0 0-.512.441c-.059.1-.11.188-.113.192a2.44 2.44 0 0 1-.356-.086 3.63 3.63 0 0 0-1.086-.18.967.967 0 0 0-.559.137c-.4.2-.793.586-2.009 1.953a6.9 6.9 0 0 1 .533-1.328m4.2 5.959a1.28 1.28 0 0 0-.343-.234 2.36 2.36 0 0 1-1.22-1.313 2.1 2.1 0 0 1-.054-.868c.027-.1-.028-.113.719.149.289.1.75.277 1.023.394l.5.211-.024.235a2.341 2.341 0 0 0 .954 1.84l.242.207-.223.028a7.37 7.37 0 0 1-1.586-.09c-.325-.059-.344-.067-.219-.094a.316.316 0 0 0 .231-.464Zm.415-4.162c.191.036.457.094.582.133l.234.075h-.39a2.03 2.03 0 0 0-1.454.485 1.64 1.64 0 0 0-.274.332c-.054.094-.121.16-.144.153-.094-.036-1.153-.34-1.485-.43L8.471 16l.2-.145a3.135 3.135 0 0 1 1.434-.516 6.48 6.48 0 0 1 1.645-.002m-.489-2.168.117-.161.118.086a1.3 1.3 0 0 1 .238.247 2.94 2.94 0 0 1 .5 1.277c.008.125 0 .168-.039.161-.16-.036-.825-.125-.93-.125s-.129-.02-.168-.129a1.71 1.71 0 0 1 .164-1.356m-2.645 3.517c.258.066.472.117.476.117s0 .2-.011.437a2.638 2.638 0 0 0 1.582 2.56c.313.184.27.188-.129.023A3.965 3.965 0 0 1 8.151 17.8a2.7 2.7 0 0 1-.063-1.067 1.3 1.3 0 0 1 .055-.164Zm2.673.2-.34-.129.066-.117a1.115 1.115 0 0 1 .613-.4 2.13 2.13 0 0 1 .759-.043c.511.02.523.02.613-.07a.317.317 0 0 0 .094-.215c0-.062.012-.117.023-.117a2.1 2.1 0 0 1 .266.144 7.34 7.34 0 0 1 1.036.782l.246.227-.325.007a2.088 2.088 0 0 0-1.324.5l-.164.129-.61-.282c-.342-.167-.766-.351-.953-.421Zm1.742-3.318c.614-.371.735-.387 1.11-.136l.223.148-.2.035a3.98 3.98 0 0 0-1.144.321l-.247.129-.039-.094c-.058-.177-.034-.208.297-.408ZM14.551 16l-.172-.141a6.2 6.2 0 0 0-1.43-.828c-.109-.035-.113-.078-.011-.239a1.463 1.463 0 0 1 1-.508 1.8 1.8 0 0 1 .918.02 11.1 11.1 0 0 1 1.149.281c.078.082-.953 1.145-1.282 1.317zm-8.167.7-.019-.586.352-.422a12.14 12.14 0 0 1 2.168-2.231 1.37 1.37 0 0 1 .735-.024c.117.024.336.078.488.121l.282.082.019.419a4 4 0 0 0 .047.5c.024.074.012.086-.1.105a4.74 4.74 0 0 0-1.829.532 2.53 2.53 0 0 0-.672.578l-.059.09-.367-.063c-.2-.031-.407-.058-.457-.058a.341.341 0 0 0-.282.305c0 .207.106.285.469.343a1.9 1.9 0 0 1 .34.071.42.42 0 0 1-.023.168 2.93 2.93 0 0 0 .035 1.16 2.705 2.705 0 0 0 .8 1.337 4.79 4.79 0 0 0 1.36.977 1.62 1.62 0 0 1 .355.211c-.023 0-.234-.02-.468-.043-2.318-.222-3.08-1.078-3.174-3.572m8.316 4.526-.254.129H9.554l-.254-.129c-.266-.133-.665-.457-.524-.422.043.012.219.039.391.063a30.8 30.8 0 0 0 6.057-.063c.14-.035-.258.289-.524.422m.758-1.281c-.117.019-1.993.179-2.071.179-.008 0 .027-.043.078-.1.184-.18.141-.282-.285-.712a1.75 1.75 0 0 1-.621-1.012l-.024-.183.387.207a15.9 15.9 0 0 1 2.059 1.336c.227.176.379.192.516.051s.133-.313-.059-.485a16.1 16.1 0 0 0-1.512-1.047 1.92 1.92 0 0 1-.43-.3 1.59 1.59 0 0 1 .645-.293 1.37 1.37 0 0 1 .485.008c.25.039.277.039.375-.039l.105-.078.067.082c.039.047.164.227.277.4a3.6 3.6 0 0 1 .692 1.5c0 .267-.215.419-.684.486m2.153-2.99a7.63 7.63 0 0 1-.227 1.411 3.09 3.09 0 0 1-.5.953l-.109.106-.028-.156a6.41 6.41 0 0 0-1.492-2.58l-.211-.23.207-.152c.109-.086.351-.3.535-.473s.336-.317.344-.321.121.094.254.207a11.2 11.2 0 0 0 1.137.786l.113.07z"/></svg>

<?xml version="1.0" encoding="UTF-8"?>
<svg width="24px" fill="#44739e" height="24px" viewBox="0 0 24 24" version="1.1" xmlns="http://www.w3.org/2000/svg" xmlns:xlink="http://www.w3.org/1999/xlink">
            <path d="m 17.326,13.032 a 27.454,27.454 0 0 1 -1.051,-2.693 c -0.161,-0.48 -0.18,-0.586 -0.133,-0.6 A 1.266,1.266 0 0 0 16.396,9.52 0.842,0.842 0 0 0 16.596,8.5 0.943,0.943 0 0 0 15.748,7.933 H 15.6 V 7.588 c 0,-0.332 0,-0.343 0.109,-0.406 a 1.1,1.1 0 0 0 0.426,-0.516 c 0.063,-0.172 0.1,-0.207 0.321,-0.328 a 1.338,1.338 0 0 0 0.625,-0.629 1.055,1.055 0 0 0 0.1,-0.559 V 4.806 H 17.31 A 0.329,0.329 0 0 0 17.631,4.494 0.349,0.349 0 0 0 17.365,4.181 c -0.07,0 -0.074,-0.023 -0.059,-0.422 0.024,-0.5 -0.015,-0.676 -0.2,-0.895 -0.4,-0.465 -1.411,-0.723 -3.267,-0.832 -0.75,-0.043 -3.97,-0.043 -4.572,0 A 3.506,3.506 0 0 0 6.954,2.766 C 6.72,3.028 6.673,3.208 6.696,3.747 6.716,4.154 6.712,4.177 6.641,4.177 6.524,4.177 6.376,4.353 6.376,4.49 A 0.326,0.326 0 0 0 6.7,4.802 H 6.83 L 6.81,5.013 A 1.351,1.351 0 0 0 7.182,6.06 2.842,2.842 0 0 0 7.545,6.318 c 0.223,0.133 0.262,0.18 0.324,0.344 a 1.086,1.086 0 0 0 0.43,0.516 c 0.1,0.063 0.106,0.074 0.106,0.406 V 7.928 H 8.264 A 0.855,0.855 0 0 0 7.604,8.221 0.856,0.856 0 0 0 7.357,9.155 1.378,1.378 0 0 0 7.838,9.71 c 0.074,0.043 0.07,0.067 -0.168,0.782 a 28.222,28.222 0 0 1 -1.082,2.731 6.14,6.14 0 0 0 -0.829,3.459 5.515,5.515 0 0 0 0.5,2.446 2.617,2.617 0 0 0 1.231,1.266 0.783,0.783 0 0 1 0.387,0.359 2.869,2.869 0 0 0 1.438,1.147 l 0.3,0.1 h 2.38 a 11.081,11.081 0 0 0 2.649,-0.082 2.887,2.887 0 0 0 1.477,-1.161 1.277,1.277 0 0 1 0.223,-0.281 2.805,2.805 0 0 0 0.9,-0.629 4.427,4.427 0 0 0 1,-3.161 c 0.039,-1.341 -0.058,-1.739 -0.918,-3.654 z M 15.732,8.558 a 0.3,0.3 0 0 1 0.234,0.1 0.308,0.308 0 0 1 -0.234,0.528 H 15.6 V 8.558 Z M 7.31,3.622 c 0,-0.394 0.051,-0.48 0.372,-0.629 A 5.584,5.584 0 0 1 9.5,2.641 c 0.1,-0.007 1.168,-0.007 2.383,0 1.685,0.012 2.333,0.028 2.736,0.075 a 4.381,4.381 0 0 1 1.93,0.5 c 0.141,0.113 0.141,0.117 0.141,0.406 0,0.289 -0.039,0.426 -0.152,0.512 -0.047,0.039 -1.079,0.047 -4.529,0.051 H 7.537 L 7.424,4.072 C 7.318,3.958 7.31,3.935 7.31,3.622 Z M 7.877,5.791 A 0.758,0.758 0 0 1 7.518,5.471 0.472,0.472 0 0 1 7.525,4.9 L 7.619,4.8 h 8.761 l 0.094,0.1 a 0.477,0.477 0 0 1 0.012,0.567 0.716,0.716 0 0 1 -0.344,0.32 1.045,1.045 0 0 0 -0.567,0.582 C 15.462,6.705 15.759,6.678 12,6.678 A 24.741,24.741 0 0 1 8.577,6.619 0.648,0.648 0 0 1 8.412,6.334 C 8.315,6.068 8.241,6 7.877,5.791 Z M 12,9.183 H 9.03 V 8.558 h 5.94 v 0.625 z m 2.97,0.625 v 0.371 c 0,0.344 -0.008,0.383 -0.1,0.469 l -0.094,0.1 H 9.221 l -0.093,-0.1 c -0.09,-0.086 -0.1,-0.125 -0.1,-0.469 V 9.808 h 5.94 z M 12,7.932 H 9.03 V 7.62 h 5.94 V 7.932 Z M 8.268,8.558 H 8.4 V 9.183 H 8.268 a 0.313,0.313 0 1 1 0,-0.625 z M 7.135,13.54 c 0.453,-1.012 0.828,-1.954 1.082,-2.685 l 0.168,-0.5 0.027,0.168 a 1.337,1.337 0 0 0 0.09,0.313 1.144,1.144 0 0 0 0.559,0.484 c 0.113,0.035 0.918,0.047 2.947,0.047 3.18,0 3.032,0.016 3.325,-0.312 a 0.953,0.953 0 0 0 0.266,-0.61 c 0,-0.07 0.082,0.117 0.207,0.473 0.308,0.871 0.594,1.575 1.047,2.6 0.227,0.5 0.449,1.024 0.5,1.153 a 2.536,2.536 0 0 1 0.215,1.114 6.1,6.1 0 0 1 -1.031,-0.782 0.982,0.982 0 0 1 0.062,-0.179 0.625,0.625 0 0 0 -0.086,-0.645 c -0.137,-0.145 -0.242,-0.192 -0.7,-0.3 L 15.461,13.793 15.07,13.41 a 2.627,2.627 0 0 0 -0.981,-0.711 1.373,1.373 0 0 0 -1.285,0.277 3.681,3.681 0 0 1 -0.364,0.2 c -0.019,0.008 -0.117,-0.1 -0.218,-0.23 a 1.113,1.113 0 0 0 -0.985,-0.535 0.862,0.862 0 0 0 -0.512,0.441 c -0.059,0.1 -0.11,0.188 -0.113,0.192 A 2.442,2.442 0 0 1 10.256,12.958 3.632,3.632 0 0 0 9.17,12.778 0.967,0.967 0 0 0 8.611,12.915 c -0.4,0.2 -0.793,0.586 -2.009,1.953 A 6.885,6.885 0 0 1 7.135,13.54 Z m 4.2,5.959 A 1.279,1.279 0 0 0 10.992,19.265 2.361,2.361 0 0 1 9.772,17.952 2.1,2.1 0 0 1 9.718,17.084 c 0.027,-0.1 -0.028,-0.113 0.719,0.149 0.289,0.1 0.75,0.277 1.023,0.394 l 0.5,0.211 -0.024,0.235 a 2.341,2.341 0 0 0 0.954,1.84 l 0.242,0.207 -0.223,0.028 a 7.367,7.367 0 0 1 -1.586,-0.09 C 10.998,19.999 10.979,19.991 11.104,19.964 A 0.316,0.316 0 0 0 11.335,19.5 Z m 0.415,-4.162 c 0.191,0.036 0.457,0.094 0.582,0.133 l 0.234,0.075 h -0.39 a 2.03,2.03 0 0 0 -1.454,0.485 1.643,1.643 0 0 0 -0.274,0.332 c -0.054,0.094 -0.121,0.16 -0.144,0.153 -0.094,-0.036 -1.153,-0.34 -1.485,-0.43 L 8.471,16 l 0.2,-0.145 a 3.135,3.135 0 0 1 1.434,-0.516 6.476,6.476 0 0 1 1.645,-0.002 z m -0.489,-2.168 0.117,-0.161 0.118,0.086 a 1.314,1.314 0 0 1 0.238,0.247 2.939,2.939 0 0 1 0.5,1.277 c 0.008,0.125 0,0.168 -0.039,0.161 -0.16,-0.036 -0.825,-0.125 -0.93,-0.125 -0.105,0 -0.129,-0.02 -0.168,-0.129 a 1.711,1.711 0 0 1 0.164,-1.356 z m -2.645,3.517 c 0.258,0.066 0.472,0.117 0.476,0.117 0.004,0 0,0.2 -0.011,0.437 a 2.638,2.638 0 0 0 1.582,2.56 c 0.313,0.184 0.27,0.188 -0.129,0.023 A 3.965,3.965 0 0 1 8.151,17.8 2.7,2.7 0 0 1 8.088,16.733 1.3,1.3 0 0 1 8.143,16.569 Z m 2.673,0.2 -0.34,-0.129 0.066,-0.117 a 1.115,1.115 0 0 1 0.613,-0.4 2.131,2.131 0 0 1 0.759,-0.043 c 0.511,0.02 0.523,0.02 0.613,-0.07 a 0.317,0.317 0 0 0 0.094,-0.215 c 0,-0.062 0.012,-0.117 0.023,-0.117 a 2.083,2.083 0 0 1 0.266,0.144 7.336,7.336 0 0 1 1.036,0.782 l 0.246,0.227 -0.325,0.007 a 2.088,2.088 0 0 0 -1.324,0.5 l -0.164,0.129 -0.61,-0.282 C 11.9,17.135 11.476,16.951 11.289,16.881 Z m 1.742,-3.318 c 0.614,-0.371 0.735,-0.387 1.11,-0.136 l 0.223,0.148 -0.2,0.035 a 3.977,3.977 0 0 0 -1.144,0.321 l -0.247,0.129 -0.039,-0.094 C 12.676,13.794 12.7,13.763 13.031,13.563 Z M 14.551,16 14.379,15.859 a 6.208,6.208 0 0 0 -1.43,-0.828 C 12.84,14.996 12.836,14.953 12.938,14.792 a 1.463,1.463 0 0 1 1,-0.508 1.8,1.8 0 0 1 0.918,0.02 11.094,11.094 0 0 1 1.149,0.281 c 0.078,0.082 -0.953,1.145 -1.282,1.317 z M 6.384,16.7 6.365,16.114 6.717,15.692 A 12.14,12.14 0 0 1 8.885,13.461 1.369,1.369 0 0 1 9.62,13.437 c 0.117,0.024 0.336,0.078 0.488,0.121 l 0.282,0.082 0.019,0.419 a 3.963,3.963 0 0 0 0.047,0.5 c 0.024,0.074 0.012,0.086 -0.1,0.105 A 4.742,4.742 0 0 0 8.527,15.196 2.528,2.528 0 0 0 7.855,15.774 L 7.796,15.864 7.429,15.801 C 7.229,15.77 7.022,15.743 6.972,15.743 A 0.341,0.341 0 0 0 6.69,16.048 c 0,0.207 0.106,0.285 0.469,0.343 a 1.875,1.875 0 0 1 0.34,0.071 0.419,0.419 0 0 1 -0.023,0.168 2.929,2.929 0 0 0 0.035,1.16 2.705,2.705 0 0 0 0.8,1.337 4.788,4.788 0 0 0 1.36,0.977 1.619,1.619 0 0 1 0.355,0.211 c -0.023,0 -0.234,-0.02 -0.468,-0.043 C 7.24,20.05 6.478,19.194 6.384,16.7 Z m 8.316,4.526 -0.254,0.129 H 9.554 L 9.3,21.226 C 9.034,21.093 8.635,20.769 8.776,20.804 c 0.043,0.012 0.219,0.039 0.391,0.063 a 30.811,30.811 0 0 0 6.057,-0.063 c 0.14,-0.035 -0.258,0.289 -0.524,0.422 z m 0.758,-1.281 c -0.117,0.019 -1.993,0.179 -2.071,0.179 -0.008,0 0.027,-0.043 0.078,-0.1 0.184,-0.18 0.141,-0.282 -0.285,-0.712 A 1.751,1.751 0 0 1 12.559,18.3 l -0.024,-0.183 0.387,0.207 a 15.881,15.881 0 0 1 2.059,1.336 c 0.227,0.176 0.379,0.192 0.516,0.051 0.137,-0.141 0.133,-0.313 -0.059,-0.485 a 16.086,16.086 0 0 0 -1.512,-1.047 1.922,1.922 0 0 1 -0.43,-0.3 1.588,1.588 0 0 1 0.645,-0.293 1.374,1.374 0 0 1 0.485,0.008 c 0.25,0.039 0.277,0.039 0.375,-0.039 l 0.105,-0.078 0.067,0.082 c 0.039,0.047 0.164,0.227 0.277,0.4 a 3.6,3.6 0 0 1 0.692,1.5 c 0,0.267 -0.215,0.419 -0.684,0.486 z m 2.153,-2.99 a 7.634,7.634 0 0 1 -0.227,1.411 3.089,3.089 0 0 1 -0.5,0.953 l -0.109,0.106 -0.028,-0.156 a 6.407,6.407 0 0 0 -1.492,-2.58 l -0.211,-0.23 0.207,-0.152 c 0.109,-0.086 0.351,-0.3 0.535,-0.473 0.184,-0.173 0.336,-0.317 0.344,-0.321 0.008,-0.004 0.121,0.094 0.254,0.207 a 11.188,11.188 0 0 0 1.137,0.786 l 0.113,0.07 z"/>

</svg>
